src/components/Icon/assets/lightbulb.svg

<svg width="24" height="24" viewBox="0 0 24 24" fill="none" xmlns="http://www.w3.org/2000/svg">
<path fill-rule="evenodd" clip-rule="evenodd" d="M11 4H13V1H11V4ZM3.29321 4.7071L4.70721 3.2931L6.70721 5.2931L5.29321 6.7071L3.29321 4.7071ZM17.2931 5.2931L19.2931 3.2931L20.7071 4.7071L18.7071 6.7071L17.2931 5.2931ZM13.0061 17C13.0711 15.87 13.6041 14.816 14.4601 14.148C15.4391 13.384 16.0001 12.237 16.0001 11C16.0001 9.79 15.4611 8.658 14.5211 7.894C13.5671 7.119 12.3621 6.836 11.1271 7.092C9.59011 7.413 8.33011 8.725 8.06211 10.284C7.81111 11.744 8.33811 13.169 9.47311 14.094C10.3801 14.835 10.9261 15.883 10.9931 17H13.0061ZM10.7181 5.134C12.5241 4.756 14.3721 5.196 15.7821 6.342C17.1911 7.487 18.0001 9.185 18.0001 11C18.0001 12.857 17.1581 14.579 15.6901 15.725C15.2581 16.062 15.0001 16.625 15.0001 17.231V19V21C15.0001 21.552 14.5521 22 14.0001 22H10.0001C9.44812 22 9.00012 21.552 9.00012 21V18V17.232C9.00012 16.633 8.71112 16.054 8.20912 15.644C6.50712 14.256 5.71612 12.126 6.09112 9.945C6.50112 7.56 8.36012 5.626 10.7181 5.134Z" fill="#65676A"/>
</svg>

<svg xmlns="http://www.w3.org/2000/svg" width="24" height="24" viewBox="0 0 24 24">
    <path fill="#65676A" fill-rule="evenodd" d="M10.718 5.134c1.806-.378 3.654.062 5.064 1.208C17.192 7.487 18 9.185 18 11c0 1.857-.842 3.579-2.31 4.725-.432.337-.69.9-.69 1.506V21c0 .552-.448 1-1 1h-4c-.552 0-1-.448-1-1v-3.768c0-.599-.289-1.178-.79-1.588-1.703-1.388-2.494-3.518-2.119-5.699.41-2.385 2.27-4.319 4.627-4.811zm3.803 2.76c-.954-.775-2.159-1.058-3.394-.802-1.537.321-2.797 1.633-3.065 3.192-.25 1.46.276 2.885 1.411 3.81.907.741 1.453 1.789 1.52 2.906h2.013c.065-1.13.598-2.184 1.454-2.852C15.44 13.384 16 12.237 16 11c0-1.21-.539-2.342-1.479-3.106zm-9.814-4.6l2 2-1.414 1.413-2-2 1.414-1.414zm14.586 0l1.414 1.413-2 2-1.414-1.414 2-2zM13 1v3h-2V1h2z"/>
</svg>
